X:1
T:Marching on to Glory Day by Day
T:Marching on to Glory Day by Day
T:A. J. Robertson
T:Jennie Wilson, 1901
T:Public Domain Courtesy of the Cyber Hymnal™
T:Public Domain Courtesy of the Cyber Hymnal™
C:A. J. Robertson
Z:Public Domain
Z:Courtesy of the Cyber Hymnal™
%%score ( 1 2 ) ( 3 4 )
L:1/8
Q:1/4=90
M:4/4
K:Eb
V:1 treble 
V:2 treble 
V:3 bass 
V:4 bass 
V:1
 [EG][FA] | [GB][^F=A][GB][_Ac] [GB][=FA][EG][GB] | [Ac][Ae][Ad][Ac] [GB]2 GF | EFGA B2 [Ec]2 | %4
w: 1.~’Neath the|sac- red Gos- pel ban- ner with the|Sav- ior for our guide, We are|march- ing on to glo- ry|
w: 2.~Climb- ing|rug- ged steeps be- fore us, led in|ways we do not know, We are|march- ing on to glo- ry|
w: 3.~O- ver-|com- ing earth’s temp- ta- tions, joys en-|dur- ing to ob- tain, We are|march- ing on to glo- ry|
w: 4.~To be|rea- dy for the ban- quet at the|mar- riage of the Lamb, We are|march- ing on to glo- ry|
 [EB]2 [EG]2 !fermata![DF]2 [EG][FA] | [GB][^F=A][GB][_Ac] [GB][=FA][EG][GB] | %6
w: day by day; Trust- ing|in our ho- ly lead- er thro’ what-|
w: day by day; Pass- ing|oft thro’ plea- sant val- leys where re-|
w: day by day; Seek- ing|Hea- ven’s shin- ing ci- ty, life e-|
w: day by day; With the|com- pa- ny of pure ones to u-|
 [Ac][Ae][Ad][Ac] [GB]2 GF | EFGA B2 [Ge]2 | [EG]2 [DF]2 !fermata!E2 ||"^Refrain" [B,B][B,B] | %10
w: ev- er may be- tide, We are|march- ing on to glo- ry|day by day.||
w: fresh- ing wa- ters flow, We are|march- ing on to glo- ry|day by day.|We are|
w: ter- nal there to gain, We are|march- ing on to glo- ry|day by day.||
w: nite in vic- tory’s psalm, We are|march- ing on to glo- ry|day by day.||
 [Cc][=B,=B][Cc][Dd] [Ee]2 [EG]2 | [FA]2 [EG]2 [DF]2 [B,B][B,B] | %12
w: ||
w: march- ing on to glo- ry|day by day, We are|
w: ||
w: ||
 [Cc][=B,=B][Cc][Dd] [Ee]2 [G_B]2 | [Fd]2 [Ec]2 !fermata![DB]2 [EG][FA] | %14
w: ||
w: march- ing on to glo- ry|day by day; Ga- ther-|
w: ||
w: ||
 [GB][^F=A][GB][_Ac] [GB][=FA][EG][GB] | [Ac][Ae][Ad][Ac] [GB][GB]GF | EFGA B2 [Ge]2 | %17
w: |||
w: ing from ev- ery na- tion, ’neath the|ban- ner of sal- va- tion, We are|march- ing on to glo- ry|
w: |||
w: |||
 [EG]2 [DF]2 !fermata!E2 |] %18
w: |
w: day by day.|
w: |
w: |
V:2
 x2 | x8 | x6 GF | EFGA B2 x2 | x8 | x8 | x6 GF | EFGA B2 x2 | x4 E2 || x2 | x8 | x8 | x8 | x8 | %14
 x8 | x6 GF | EFGA B2 x2 | x4 E2 |] %18
V:3
 [E,B,][E,B,] | [E,E][E,E][E,E][E,E] [E,E][E,B,][E,B,][E,E] | %2
 [A,,E][B,,C][C,B,][D,B,] [E,B,]2 G,F, | E,F,G,A, B,2 [A,E]2 | %4
 [G,E]2 [E,B,]2 !fermata![B,,B,]2 [E,B,][E,B,] | [E,E][E,E][E,E][E,E] [E,E][E,B,][E,B,][E,E] | %6
 [A,,E][B,,C][C,B,][D,B,] [E,B,]2 G,F, | E,F,G,A, B,2 [E,B,]2 | %8
 [B,,B,]2 [B,,A,]2 !fermata![E,G,]2 || [B,,B,][B,,B,] | [C,C][=B,,=B,][C,C][D,D] [E,E]2 [E,B,]2 | %11
 [D,B,]2 [E,B,]2 [B,,B,]2 [B,,B,][B,,B,] | [C,C][=B,,=B,][C,C][D,D] [E,E]2 [E,E]2 | %13
 [F,B,]2 [F,=A,]2 !fermata![B,,B,]2 [E,B,][E,B,] | [E,E][E,E][E,E][E,E] [E,E][E,B,][E,B,][E,E] | %15
 [A,,E][B,,C][C,B,][D,B,] [E,B,][E,B,]G,F, | E,F,G,A, B,2 [E,B,]2 | %17
 [B,,B,]2 [B,,A,]2 !fermata![E,G,]2 |] %18
V:4
 x2 | x8 | x6 G,F, | E,F,G,A, B,2 x2 | x8 | x8 | x6 G,F, | E,F,G,A, B,2 x2 | x6 || x2 | x8 | x8 | %12
 x8 | x8 | x8 | x6 G,F, | E,F,G,A, B,2 x2 | x6 |] %18

